X:34
T:Jump At The Sun
M:6/8
L:1/8
R:jig
D:Highland Sun: Celtic Crossover
K:Em
|:EGB ^A2B|EGB ^A2B|eBB eBB|cBA GFE|
EGB ^A2B|EGB ^A2B|eBB eBB|AGF E3:|
|:e3 efg|f3 agf|gfe efg|fBB c2B|
e3 efg|f3 agf|gfe dcB|AGF E3:|
